Numix-Circle/48x48/apps/distributor-logo-opensuse.svg

<svg xmlns="http://www.w3.org/2000/svg" xmlns:xlink="http://www.w3.org/1999/xlink" width="48" viewBox="0 0 13.546667 13.546667" height="48">
 <defs>
  <clipPath>
   <rect height="208.57" y="1580.93" x="-830" width="477.14" fill="#ff0"/>
  </clipPath>
  <clipPath>
   <rect height="208.57" y="1580.93" x="-830" width="477.14" fill="#ff0"/>
  </clipPath>
  <clipPath>
   <rect height="208.57" y="1580.93" x="-830" width="477.14" fill="#ff0"/>
  </clipPath>
  <clipPath>
   <rect height="208.57" y="1580.93" x="-830" width="477.14" fill="#ff0"/>
  </clipPath>
  <clipPath>
   <rect transform="matrix(.99975 -.02255 .02255 .99975 0 0)" height="240.87" y="780.64" x="294.93" width="357.87" fill="#f00"/>
  </clipPath>
  <clipPath>
   <rect height="195" y="857.54" width="301.43" fill="#fff"/>
  </clipPath>
  <clipPath>
   <rect height="208.57" y="1580.93" x="-830" width="477.14" fill="#ff0"/>
  </clipPath>
  <clipPath>
   <rect height="30.01" y="977.09" x="276.37" width="79.48" fill="#e20a17"/>
  </clipPath>
  <clipPath>
   <rect transform="rotate(20.37582)" height="37.48" y="0.064" x="8.208" width="506.46" fill="#162d50"/>
  </clipPath>
  <clipPath>
   <rect transform="rotate(.22918)" height="318.4" y="758.67" x="218.9" width="357.38" fill="#fff"/>
  </clipPath>
  <clipPath>
   <rect transform="rotate(.22918)" height="318.4" y="758.67" x="218.9" width="357.38" fill="#fff"/>
  </clipPath>
  <clipPath>
   <rect transform="rotate(20.37582)" height="37.48" y="0.064" x="8.208" width="506.46" fill="#162d50"/>
  </clipPath>
  <clipPath>
   <rect height="208.57" y="1580.93" x="-830" width="477.14" fill="#ff0"/>
  </clipPath>
  <clipPath>
   <rect transform="rotate(.6171)" height="235.88" y="804.24" x="221.39" width="350.46"/>
  </clipPath>
  <clipPath>
   <rect transform="rotate(.16206)" height="279.03" y="793.52" x="257.32" width="287.43" fill="#fff"/>
  </clipPath>
  <clipPath>
   <rect height="195" y="0.06" width="301.43" fill="#fff"/>
  </clipPath>
  <clipPath>
   <rect height="195" y="857.54" width="301.43" fill="#fff"/>
  </clipPath>
  <path clip-path="url(#2)" id="0" d="m 699.2857,672.93231 a 40.714287,40.714287 0 1 1 -81.42858,0 40.714287,40.714287 0 1 1 81.42858,0 z" fill="#4a0"/>
  <clipPath>
   <use xlink:href="#0" transform="matrix(4.3233 0 0 4.3233 -2450.68 -2667.55)"/>
  </clipPath>
  <clipPath>
   <rect transform="rotate(27.44968)" height="41.39" y="815.74" x="448.12" width="63.987" fill="#fff"/>
  </clipPath>
  <clipPath>
   <rect height="195" y="857.54" width="301.43" fill="#fff"/>
  </clipPath>
  <clipPath>
   <rect height="208.57" y="1580.93" x="-830" width="477.14" fill="#ff0"/>
  </clipPath>
  <clipPath>
   <rect height="208.57" y="1580.93" x="-830" width="477.14" fill="#ff0"/>
  </clipPath>
  <clipPath>
   <rect height="208.57" y="1580.93" x="-830" width="477.14" fill="#ff0"/>
  </clipPath>
  <clipPath>
   <rect height="208.57" y="1580.93" x="-830" width="477.14" fill="#ff0"/>
  </clipPath>
  <clipPath>
   <rect height="208.57" y="1580.93" x="-830" width="477.14" fill="#ff0"/>
  </clipPath>
  <clipPath>
   <use xlink:href="#0"/>
  </clipPath>
  <clipPath>
   <rect height="208.57" y="1580.93" x="-830" width="477.14" fill="#ff0"/>
  </clipPath>
  <path id="1" d="m 699.2857,672.93231 a 40.714287,40.714287 0 1 1 -81.42858,0 40.714287,40.714287 0 1 1 81.42858,0 z" fill="#4a0"/>
  <clipPath id="2">
   <use xlink:href="#1"/>
  </clipPath>
  <clipPath>
   <use transform="matrix(4.3233 0 0 4.3233 -2450.68 -2667.55)" xlink:href="#1"/>
  </clipPath>
  <linearGradient gradientUnits="userSpaceOnUse" x2="0" y2="40" y1="280" xlink:href="#4" id="3" gradientTransform="matrix(.175 0 0 .175 302.79999 215.99997)"/>
  <linearGradient id="4">
   <stop stop-color="#151515"/>
   <stop stop-color="#222" offset="1"/>
  </linearGradient>
  <linearGradient gradientUnits="userSpaceOnUse" x2="0" y2="90" y1="230" xlink:href="#4" id="5" gradientTransform="matrix(.375 0 0 .375 298 16)"/>
  <linearGradient gradientUnits="userSpaceOnUse" x2="0" y2="90" y1="230" xlink:href="#4" id="6" gradientTransform="matrix(.25 0 0 .25 299.99999 131.99999)"/>
  <clipPath>
   <rect color="#bebebe" height="20" rx="4" y="78" x="434" width="20"/>
  </clipPath>
  <clipPath>
   <rect color="#bebebe" height="22" rx="4" y="77" x="433" width="22"/>
  </clipPath>
  <clipPath>
   <rect color="#bebebe" height="22" rx="5" y="77" x="433" width="22"/>
  </clipPath>
  <clipPath>
   <rect color="#bebebe" height="30" rx="6" y="29" x="433" width="30"/>
  </clipPath>
  <clipPath>
   <rect color="#bebebe" fill="url(#6)" transform="matrix(0 -1 1 0 0 0)" height="60" rx="12.5" y="142" x="306" width="60"/>
  </clipPath>
  <clipPath>
   <rect color="#bebebe" fill="url(#5)" height="90" rx="18.75" y="31" x="307" width="90"/>
  </clipPath>
  <clipPath>
   <rect color="#bebebe" fill="#6d6d6d" opacity="0.2" height="30" rx="4" y="29" x="433" width="30"/>
  </clipPath>
  <clipPath>
   <rect color="#bebebe" fill="#6d6d6d" opacity="0.2" height="22" rx="3" y="77" x="433" width="22"/>
  </clipPath>
  <clipPath>
   <path d="m 144,70 c -49.705627,0 -90,40.29437 -90,90 0,49.70563 40.294373,90 90,90 49.70563,0 90,-40.29437 90,-90 0,-49.70563 -40.29437,-90 -90,-90 z m 0,32.1875 c 32.03251,0 58,25.96748 58,58 0,32.03252 -25.96749,58 -58,58 -32.03251,0 -58,-25.96748 -58,-58 0,-32.03252 25.96749,-58 58,-58 z"/>
  </clipPath>
  <clipPath>
   <rect color="#bebebe" height="16" rx="3" y="116" x="432" width="16"/>
  </clipPath>
  <clipPath>
   <path d="m 145,215 c 33.13708,0 60,-26.86292 60,-60 0,-33.13708 -26.86292,-60 -60,-60 -33.13708,0 -60,26.86292 -60,60 0,12.50698 3.8285,24.10633 10.375,33.71875 L 89,211 111.28125,204.625 C 120.89367,211.1715 132.49302,215 145,215 z"/>
  </clipPath>
  <clipPath>
   <path d="m 152,204 a 8,8 0 1 1 -16,0 8,8 0 1 1 16,0 z"/>
  </clipPath>
  <clipPath>
   <path d="m 98.03125,23.191212 c -41.492132,1.05238 -74.84375,35.06824 -74.84375,76.812498 0,42.40687 34.405632,76.8125 76.8125,76.8125 42.40687,0 76.8125,-34.40563 76.8125,-76.8125 0,-42.406866 -34.40563,-76.812498 -76.8125,-76.812498 -0.662607,0 -1.310145,-0.0167 -1.96875,0 z M 100,50.659962 c 27.24464,0 49.34375,22.099114 49.34375,49.343748 -1e-5,27.24464 -22.09911,49.34375 -49.34375,49.34375 -27.244636,-1e-5 -49.34375,-22.09911 -49.34375,-49.34375 0,-27.244634 22.099114,-49.343748 49.34375,-49.343748 z"/>
  </clipPath>
  <clipPath>
   <rect color="#bebebe" fill="#6d6d6d" opacity="0.2" height="16" rx="2" y="116" x="432" width="16"/>
  </clipPath>
  <clipPath>
   <rect color="#bebebe" fill="#986767" height="240" rx="50" y="36" x="24" width="240"/>
  </clipPath>
  <clipPath>
   <rect color="#bebebe" fill="url(#3)" transform="rotate(90)" height="42" rx="9" y="223" x="307" width="42"/>
  </clipPath>
 </defs>
 <rect height="12.982" rx="6.491" y="0.283" x="0.282" width="12.982" opacity="0.5" fill="#ffffff" fill-rule="evenodd"/>
 <rect height="11.853" rx="5.927" y="0.847" x="0.847" width="11.853" fill-rule="evenodd" fill="#73ba25"/>
 <path d="m 21.709262,2.9469312 -0.02104,0.804692 c -0.427914,-0.13308 -0.978768,-0.288641 -1.383787,-0.389333 -0.535944,0.7677331 -1.087874,1.7540541 -1.087874,2.7613191 -0.385778,1.40072 0.832928,3.8761634 0.514954,3.4738064 0.273044,-0.03838 2.092085,-0.04281 2.656181,0.02104 0.825045,0.09337 1.277463,0.125301 1.821497,0.08417 1.23896,-0.09367 2.057361,-0.2967764 2.965406,-0.7407204 0.474561,-0.232017 0.574946,-0.336199 0.677588,-0.613619 0.09787,-0.264511 0.134076,-0.509245 0.08417,-0.509245 -0.01767,0 -0.172356,0.06014 -0.358576,0.148144 -0.698754,0.3302 -1.310756,0.494774 -1.843382,0.466316 -0.553686,-0.02963 -1.44391,-0.351155 -2.52013,-0.868661 l -0.509245,-0.232317 -0.381302,-0.953676 0.360259,0.232316 c 0.614513,0.408056 1.618988,0.890065 2.224685,1.081619 0.925324,0.292635 1.647922,0.251609 2.393029,-0.127942 0.262629,-0.13378 0.762604,-0.460816 0.762604,-0.507562 0,-0.08812 -0.25568,-0.946277 -0.402345,-1.334979 C 27.295198,4.7702813 27.03746,4.4414453 26.433033,4.1531193 25.762,3.8330173 25.018419,3.6162522 23.658701,3.3063422 23.008624,3.1683112 22.369024,3.0291902 21.709262,2.9469242 z m 3.749051,1.8635841 c 0.444244,-0.0095 0.867663,0.281937 0.995764,0.782806 0.06452,0.252326 0.04468,0.432613 -0.08417,0.700317 -0.188402,0.391339 -0.60516,0.602789 -1.058894,0.528604 -0.319975,-0.05231 -0.596764,-0.258284 -0.741562,-0.571533 -0.176365,-0.381531 -0.09434,-0.888353 0.211274,-1.16495 0.200162,-0.181167 0.444887,-0.27038 0.67759,-0.275244 z m 0.234,0.529446 c -0.354521,0 -0.57727,0.259996 -0.381302,0.444432 0.158953,0.149593 0.424331,0.171897 0.635504,0.06397 0.136758,-0.0699 0.182609,-0.177263 0.147302,-0.318173 -0.02598,-0.103695 -0.229002,-0.19023 -0.401504,-0.19023 z" fill="#ffffff" color="#000000"/>
 <path d="M 11.5625 12 L 11.46875 12.03125 L 11.4375 12.09375 C 11.4375 12.09375 11.380148 14.598347 11.375 14.875 C 10.963033 14.738784 9.7047315 14.314366 7.875 13.8125 C 7.161049 13.628856 6.4786936 13.526117 5.84375 13.46875 C 4.0500949 16.5644 3 20.150623 3 24 C 3 28.698214 4.5375413 33.009039 7.125 36.5 C 7.3477111 36.3441 7.5862852 36.195867 7.8125 36 C 9.0701656 35.023623 11.158437 35.2671 13.75 35.5625 C 14.99191 35.703807 16.413905 35.873793 17.875 35.90625 C 21.95755 35.929281 26.351385 35.184913 29.0625 34 C 30.815077 33.231204 31.954662 32.701062 32.65625 32.0625 C 32.909285 31.855168 33.020936 31.515852 33.15625 31.15625 L 33.25 30.90625 C 33.363542 30.615727 33.552011 29.997307 33.625 29.65625 C 33.657669 29.507038 33.668427 29.363991 33.5625 29.28125 L 33.1875 29.34375 C 31.997723 30.057152 29.003311 31.413146 26.21875 31.46875 C 22.768513 31.541045 15.818965 27.999194 15.09375 27.625 L 15.03125 27.53125 C 14.857478 27.116261 13.814102 24.644703 13.59375 24.125 C 18.599159 27.421158 22.756963 29.247882 25.9375 29.53125 C 29.473701 29.845431 32.226434 27.918599 33.40625 27.09375 C 33.636565 26.936675 33.802703 26.807938 33.875 26.78125 L 33.96875 26.65625 C 33.773192 25.413647 31.896918 19.413395 30.5 17.96875 C 30.112596 17.572551 29.81286 17.17974 29.1875 16.8125 C 24.130895 13.865278 12.124602 12.082022 11.5625 12 z M 24.71875 17.09375 C 24.803789 17.092352 24.914036 17.090717 25 17.09375 C 27.83253 17.195482 30.034353 19.575577 29.9375 22.40625 C 29.887242 23.775593 29.312515 25.034072 28.3125 25.96875 C 27.309703 26.908289 26.001984 27.388238 24.625 27.34375 C 21.7971 27.238086 19.595747 24.857983 19.6875 22.03125 C 19.735915 20.659821 20.30646 19.400415 21.3125 18.46875 C 22.251581 17.58806 23.440464 17.112978 24.71875 17.09375 z M 24.59375 18.59375 C 23.768671 18.644038 22.984597 18.991117 22.375 19.5625 C 21.680367 20.2145 21.280122 21.074793 21.25 22.03125 C 21.184401 24.007188 22.713192 25.676785 24.6875 25.75 C 25.646966 25.779343 26.58059 25.462653 27.28125 24.8125 C 27.980054 24.157254 28.376366 23.264789 28.40625 22.3125 C 28.472255 20.333328 26.912275 18.663033 24.9375 18.59375 C 24.818169 18.589356 24.711452 18.586238 24.59375 18.59375 z M 25.53125 20.375 C 26.4087 20.375 27.125 20.850606 27.125 21.4375 C 27.125 22.02161 26.4087 22.5 25.53125 22.5 C 24.651025 22.5 23.9375 22.020708 23.9375 21.4375 C 23.9375 20.850603 24.651025 20.375 25.53125 20.375 z " transform="scale(0.28222223,0.28222223)" fill="#f9f9f9"/>
</svg>

<svg viewBox="0 0 48 48"><defs><linearGradient id="1" gradientUnits="userSpaceOnUse" y1="15" x2="0" y2="11" gradientTransform="matrix(15.333333,0,0,11.5,414.99999,-125.5)"><stop/><stop offset="1" stop-opacity="0"/></linearGradient><clipPath id="clipPath-757998063"><g transform="translate(0,-1004.3622)"><path d="m -24 13 c 0 1.105 -0.672 2 -1.5 2 -0.828 0 -1.5 -0.895 -1.5 -2 0 -1.105 0.672 -2 1.5 -2 0.828 0 1.5 0.895 1.5 2 z" transform="matrix(15.333333,0,0,11.5,414.99999,878.8622)" fill="#1890d0"/></g></clipPath><clipPath id="clipPath-769757395"><g transform="translate(0,-1004.3622)"><path d="m -24 13 c 0 1.105 -0.672 2 -1.5 2 -0.828 0 -1.5 -0.895 -1.5 -2 0 -1.105 0.672 -2 1.5 -2 0.828 0 1.5 0.895 1.5 2 z" transform="matrix(15.333333,0,0,11.5,414.99999,878.8622)" fill="#1890d0"/></g></clipPath></defs><g><g transform="translate(0,-1004.3622)"><path d="m 25 1006.36 c -12.703 0 -23 10.298 -23 23 0 6.367 2.601 12.12 6.781 16.281 4.085 3.712 9.514 5.969 15.469 5.969 12.703 0 23 -10.297 23 -23 0 -5.954 -2.256 -11.384 -5.969 -15.469 -4.165 -4.181 -9.914 -6.781 -16.281 -6.781 z m 16.281 6.781 c 3.854 4.113 6.219 9.637 6.219 15.719 0 12.703 -10.297 23 -23 23 -6.081 0 -11.606 -2.364 -15.719 -6.219 4.16 4.144 9.883 6.719 16.219 6.719 12.703 0 23 -10.297 23 -23 0 -6.335 -2.575 -12.06 -6.719 -16.219 z" opacity="0.05"/><path d="m 41.28 1013.14 c 3.712 4.085 5.969 9.514 5.969 15.469 0 12.703 -10.297 23 -23 23 -5.954 0 -11.384 -2.256 -15.469 -5.969 4.113 3.854 9.637 6.219 15.719 6.219 12.703 0 23 -10.297 23 -23 0 -6.081 -2.364 -11.606 -6.219 -15.719 z" opacity="0.1"/><path transform="matrix(15.333333,0,0,11.5,415.24999,879.11222)" d="m -24 13 a 1.5 2 0 1 1 -3 0 1.5 2 0 1 1 3 0 z" opacity="0.2"/></g></g><g><g transform="translate(0,-1004.3622)"><path d="m -24 13 c 0 1.105 -0.672 2 -1.5 2 -0.828 0 -1.5 -0.895 -1.5 -2 0 -1.105 0.672 -2 1.5 -2 0.828 0 1.5 0.895 1.5 2 z" transform="matrix(15.333333,0,0,11.5,414.99999,878.8622)" fill="#73ba25"/></g></g><g><path d="m 47 24 c 0 12.703 -10.297 23 -23 23 -12.703 0 -23 -10.297 -23 -23 0 -12.703 10.297 -23 23 -23 12.703 0 23 10.297 23 23 z" opacity="0.15" fill="url(#1)"/></g><g><g clip-path="url(#clipPath-757998063)"><g transform="translate(0,1)"><g opacity="0.1"><!-- color: #73ba25 --><g><path d="m 11.563 12 l -0.094 0.031 l -0.031 0.063 c 0 0 -0.055 2.504 -0.063 2.781 c -0.41 -0.137 -1.672 -0.563 -3.5 -1.063 c -0.715 -0.184 -7.238 -0.754 -7.875 -0.813 c 0 5 0 23 0 27 c 0.223 -0.156 7.57 -3.828 7.813 -4 c 0.793 -0.57 3.348 -0.734 5.938 -0.438 c 1.242 0.141 2.664 0.309 4.125 0.344 c 4.086 0.023 8.477 -0.723 11.188 -1.906 c 1.754 -0.77 2.895 -1.301 3.594 -1.938 c 0.254 -0.207 0.367 -0.547 0.5 -0.906 l 0.098 -0.25 c 0.113 -0.293 0.301 -0.91 0.375 -1.25 c 0.031 -0.148 0.043 -0.293 -0.066 -0.375 l -0.375 0.063 c -1.188 0.711 -4.184 2.066 -6.969 2.125 c -3.449 0.07 -10.398 -3.473 -11.125 -3.844 l -0.063 -0.094 c -0.172 -0.418 -1.215 -2.887 -1.438 -3.406 c 5.01 3.297 9.164 5.121 12.344 5.406 c 3.535 0.313 6.289 -1.613 7.469 -2.438 c 0.23 -0.16 0.398 -0.289 0.469 -0.316 l 0.094 -0.125 c -0.195 -1.242 -2.07 -7.242 -3.469 -8.688 c -0.387 -0.395 -0.688 -0.789 -1.313 -1.156 c -5.05 -2.945 -17.06 -4.73 -17.625 -4.813 m 13.156 5.098 c 0.086 0 0.195 -0.004 0.281 0 c 2.832 0.102 5.03 2.48 4.938 5.313 c -0.051 1.371 -0.625 2.629 -1.625 3.563 c -1 0.941 -2.309 1.422 -3.688 1.375 c -2.828 -0.105 -5.03 -2.484 -4.938 -5.313 c 0.047 -1.371 0.617 -2.629 1.625 -3.563 c 0.938 -0.879 2.129 -1.355 3.406 -1.375 m -0.125 1.5 c -0.824 0.051 -1.609 0.398 -2.219 0.969 c -0.695 0.652 -1.094 1.512 -1.125 2.469 c -0.066 1.977 1.465 3.648 3.438 3.719 c 0.961 0.031 1.895 -0.285 2.594 -0.938 c 0.699 -0.656 1.098 -1.547 1.125 -2.5 c 0.066 -1.977 -1.492 -3.648 -3.469 -3.719 c -0.117 -0.004 -0.227 -0.008 -0.344 0 m 0.938 1.781 c 0.879 0 1.594 0.477 1.594 1.063 c 0 0.586 -0.715 1.063 -1.594 1.063 c -0.879 0 -1.594 -0.477 -1.594 -1.063 c 0 -0.586 0.715 -1.063 1.594 -1.063 m 0 0" fill="#000" stroke="none" fill-rule="nonzero" fill-opacity="1"/></g></g></g></g></g><g><g clip-path="url(#clipPath-769757395)"><!-- color: #73ba25 --><g><path d="m 11.563 12 l -0.094 0.031 l -0.031 0.063 c 0 0 -0.055 2.504 -0.063 2.781 c -0.41 -0.137 -1.672 -0.563 -3.5 -1.063 c -0.715 -0.184 -7.238 -0.754 -7.875 -0.813 c 0 5 0 23 0 27 c 0.223 -0.156 7.57 -3.828 7.813 -4 c 0.793 -0.57 3.348 -0.734 5.938 -0.438 c 1.242 0.141 2.664 0.309 4.125 0.344 c 4.086 0.023 8.477 -0.723 11.188 -1.906 c 1.754 -0.77 2.895 -1.301 3.594 -1.938 c 0.254 -0.207 0.367 -0.547 0.5 -0.906 l 0.098 -0.25 c 0.113 -0.293 0.301 -0.91 0.375 -1.25 c 0.031 -0.148 0.043 -0.293 -0.066 -0.375 l -0.375 0.063 c -1.188 0.711 -4.184 2.066 -6.969 2.125 c -3.449 0.07 -10.398 -3.473 -11.125 -3.844 l -0.063 -0.094 c -0.172 -0.418 -1.215 -2.887 -1.438 -3.406 c 5.01 3.297 9.164 5.121 12.344 5.406 c 3.535 0.313 6.289 -1.613 7.469 -2.438 c 0.23 -0.16 0.398 -0.289 0.469 -0.316 l 0.094 -0.125 c -0.195 -1.242 -2.07 -7.242 -3.469 -8.688 c -0.387 -0.395 -0.688 -0.789 -1.313 -1.156 c -5.05 -2.945 -17.06 -4.73 -17.625 -4.813 m 13.156 5.098 c 0.086 0 0.195 -0.004 0.281 0 c 2.832 0.102 5.03 2.48 4.938 5.313 c -0.051 1.371 -0.625 2.629 -1.625 3.563 c -1 0.941 -2.309 1.422 -3.688 1.375 c -2.828 -0.105 -5.03 -2.484 -4.938 -5.313 c 0.047 -1.371 0.617 -2.629 1.625 -3.563 c 0.938 -0.879 2.129 -1.355 3.406 -1.375 m -0.125 1.5 c -0.824 0.051 -1.609 0.398 -2.219 0.969 c -0.695 0.652 -1.094 1.512 -1.125 2.469 c -0.066 1.977 1.465 3.648 3.438 3.719 c 0.961 0.031 1.895 -0.285 2.594 -0.938 c 0.699 -0.656 1.098 -1.547 1.125 -2.5 c 0.066 -1.977 -1.492 -3.648 -3.469 -3.719 c -0.117 -0.004 -0.227 -0.008 -0.344 0 m 0.938 1.781 c 0.879 0 1.594 0.477 1.594 1.063 c 0 0.586 -0.715 1.063 -1.594 1.063 c -0.879 0 -1.594 -0.477 -1.594 -1.063 c 0 -0.586 0.715 -1.063 1.594 -1.063 m 0 0" fill="#f9f9f9" stroke="none" fill-rule="nonzero" fill-opacity="1"/></g></g></g><g><path d="m 40.03 7.531 c 3.712 4.084 5.969 9.514 5.969 15.469 0 12.703 -10.297 23 -23 23 c -5.954 0 -11.384 -2.256 -15.469 -5.969 4.178 4.291 10.01 6.969 16.469 6.969 c 12.703 0 23 -10.298 23 -23 0 -6.462 -2.677 -12.291 -6.969 -16.469 z" opacity="0.1"/></g></svg>
